X:111
T:Old Tipperary
Z: id:dc-jig-92
M:6/8
L:1/8
K:G Major
G|cAF G3|AcA GFG|cAF G3|AFD FAd|!
cAF G3|AcA GFG|fdd edd|fdd cA:|!
F|GBd g3|gaf g3|dgg gfg|a2g fga|!
bag agf|gfe f2e|dcA d2e|fed cA:|!

